X:1
T:Hear me, o Lord, the Great Support
T:Henry Purcell
T:Hear me, o Lord, the Great Support
C:Henry Purcell
%%score [ 1 2 3 ] { ( 4 6 ) | ( 5 7 ) }
L:1/8
Q:1/4=70
M:4/4
K:Eb
V:1 treble nm="Alto" snm="A"
V:2 treble-8 nm="Tenor" snm="T"
V:3 bass nm="Bass" snm="B"
V:4 treble nm="Harmonium" snm="Hrmn."
V:6 treble 
V:5 bass 
V:7 bass 
V:1
 z2 E3 E D2 | E4- EEFF | G4- GA D>E | =B,>B, B,2 z4 | z2 D3 D ^C2 | D4- DD=EE | F4- FF=A,B, | %7
w: Hear me, O|Lord, _ the great sup-|port _ Of my in-|te- gri- ty,|Hear me, O|Lord, _ the great sup-|port _ Of my in-|
 C3 B, B,B,B,B, | B,G,=A,=B, C4 | z FFF FDEF | G4- GDEF | =A,3 G, G,4 | z2 D2 D2 z D | %13
w: te- gri- ty; Thou hast my|for- mer trou- bles eas'd,|Thou hast my for- mer trou- bles|eas'd; _ Now to my|pray'rs draw nigh.|Fond men! that|
 DD G>D E2 z =E | =EE E>F F2 A2 | F>E DB, G,B, E2 | z8 | z4 z2 G2 | E>D CA, F,B, D2- | %19
w: would my glo- ry stain, My|gov- ern- ment des- pise; How|long will ye pur- sue vain hopes,||How|long will ye pur- sue vain hopes,|
 DG, G3 G F>E | D4 z C F2- | FF E>D D3 C | C8 || z8 | z8 | z8 | z8 | z8 | z8 | z8 | z8 | z8 | %32
w: _ And please your- selves with|lies, And please,|_ and please your- selves with|lies?||||||||||
 z4 z2 z E | =B,4 z4 | C C3 z D F<D | E>D C3 D B,>=A, | G,2 z2 z C F<C | %37
w: but|fear,|Sin not, let qui- et|thoughts In- struct and make you|wise, let qui- et|
 D C/B,/ _D C/B,/ F,3 G,/A,/ | G,4 z2 G2- | GG G2 FFFF | ^FF/G/ D2 C2 B,>=A, | =A,4 z2 F2- | %42
w: thoughts In- * struct and _ make you _|wise; Join|_ a pure heart with trust in|God As the best sa- * cri-|fice, Join|
 FF F2 ^FFG=A | D2 E3 E FG | F<E D>C C4 ||[M:3/4] z6 | z6 | z6 | z6 | D3 D G2 | E6 | z2 =E4 | %52
w: _ a pure heart with trust in|God As the best _|sa- * * cri- fice.|||||Thou art our|hope;|Lord,|
 z2 F4 | z2 ^F4 | G3 D E>F | E/DC/ B,3 =A, | G,4 D2 | G4 z2 | A3 G FG | DE C3 =B, | C6 | A3 G FG | %62
w: cast,|Lord,|cast on us A|fav- * our- a- ble|eye, Lord,|cast,|cast on us A|fav- our- a- ble|eye,|cast on us A|
 DE C3 =B, | C6 ||[K:C][M:2/2][Q:1/4=140]"^70" z2 G,2 C3 D | E>FE>F TF3 E | G3 A G2 E2 | %67
w: fav- our- a- ble|eye.|Thy love more|cheers _ _ _ _ my|heart than when Their|
 C2 A,2 E2 F>E | D4 z2 G,2 | C3 D E2 C2 | A,3 A, F3 A, | B,2 ED B,2 A,G, | G,4 z2 D2 | %73
w: corn has wish'd _ in-|crease; Or|when a hap- py|vin- tage makes Their|wine o'er- * flow the _|press, Thy|
 G3 A G>FE>F | TF3 E A3 D | ^C3 D E3 F | E/D C<B,C/ C3 B, | A,3 A, D3 E | D2 G,2 G2 E2 | %79
w: love more cheers _ _ _|_ my heart than|when Their corn, Their|corn _ has _ _ wish'd in-|crease; Or when a|hap- py vin- tage|
 F3 G AG FE | C3 B, C3 A, | D3 E D2 G,2 | G2 E2 F3 G | AG FE C3 B, | C8 || %85
w: makes Their wine _ o'er- *|flow the press, Or|when a hap- py|vin- tage makes Their|wine _ o'er- * flow the|press.|
[K:Eb][M:3/4][Q:1/4=70]"^70" z6 | z6 | z6 | G2 F2 E2 | D2 C2 B,2 | =A,4 D2 | =B,4 z2 | z6 | %93
w: |||Down will I|lie, will I|lie in|peace,||
 F2 E2 D2 | C2 =B,2 C2 | D4 z2 | A2 G2 F2 | E2 D2 E2 | F2 E2 D2 | E4 B,2 | _D3 C A,2- | %101
w: Down will I|lie _ in|peace,|Down will I|lie, will I|lie _ in|peace, and|sleep Shall close|
 A,G, F,3 E, | E,6 | z6 | D2 F2 D2 | G2 G4 | A4 A=E | F4 ED | =B,2 B,2 CD | E3 D F2 | ED B,3 =A, | %111
w: my _ wear- ied|eyes;||No fears dis-|turb me,|no, no _|fears dis- *|turb me, whilst I|know In God|my _ safe- ty|
 G,6 | z6 | z6 | C2 E2 C2 | A2 A2 AG | F3 D G2- | GD D3 C |[Q:1/4=50]"^50" C3 G A2- | AD D3 C | %120
w: lies,|||No fears dis-|turb me, whilst I|know In God|_ my safe- ty|lies, In God|_ my safe- ty|
 C6 |] %121
w: lies.|
V:2
 z2 c3 c =B2 | c4- ccdd | e4- ef =B>c | d>d d2 z2 B2- | BB =A2 B4- | BBcc d4- | ddFG =A2 B2- | %7
w: Hear me, O|Lord, _ the great sup-|port _ Of my in-|te- gri- ty, Hear|_ me, O Lord,|_ the great sup- port|_ Of my in- te- *|
 B2 =A2 B2 z2 | z4 z eee | ecde f4- | fdef =A2 G2 | G ^F2 G G4 | z2 =B2 B2 z B | =BB e>B c2 z c | %14
w: * gri- ty;|Thou hast my|for- mer trou- bles eas'd;|_ Now to my pray'rs my|pray'rs _ draw nigh.|Fond men! that|would my glo- ry stain, My|
 BB B>=A A2 z2 | z4 z2 g2 | e>d cA Fc f2 | z4 z2 e2 | c>B AF DF B2- | BB e3 e d>c | =B4 z4 | %21
w: gov- ern- ment des- pise;|How|long will ye pur- sue vain hopes,|How|long will ye pur- sue vain hopes,|_ And please your- selves with|lies,|
 z G c3 c =B>c | c8 || z2 G2- GG/G/ c2- | cdde cG B<E | F3 G A4 | z =A A/Bc/ DD d2- | d2 B>=A c4- | %28
w: and please your- selves with|lies?|Know _ that the Lord|_ does right- eous men With spe- cial|fav- our own:|Though you _ des- pise me, he|_ ne'er will On|
 c2 ^FB G3 F | G4 z d e>f | =BB e4 =A>d | G2 c3 d/e/ c>=B | c4 z4 | z d f<d e>d cB | B2 A/GA/ G4 | %35
w: _ my pe- ti- tions|frown, Though you des-|pise me, he ne'er will|On my pe- * ti- tions|frown.|let qui- et thoughts In- struct and|make _ _ you wise,|
 c c3 z3 d | B2 z G c<F A2- | AD E3 EED | E4 z2 B2- | BB B2 =BBBB | cc/c/ cB =A2 G^F/G/ | %41
w: Sin not, but|fear, let qui- et thoughts|_ In- struct and make you|wise; Join|_ a pure heart with trust in|God As the best _ sa- * * cri-|
 ^F4 z2 d2- | dd d2 dd c =B/c/ | =B4 cc de | d<c =B>c c4 ||[M:3/4] z6 | z6 | z6 | z6 | =B3 B e2 | %50
w: fice, Join|_ a pure heart with trust in _|God As the best _|sa- * * cri- fice.|||||Thou art our|
 c6 | z2 c4 | z2 c4 | z2 d4 | e3 d c>d | c/B=A/ G3 ^F | G4 =B2 | e4 z2 | d3 e dc | =B=A G3 G | G6 | %61
w: hope;|Lord,|cast,|Lord,|cast on us A|fav- * our- a- ble|eye, Lord,|cast,|cast on us A|fav- our- a- ble|eye,|
 d3 e dc | =B =A/G/ E3 D | C6 ||[K:C][M:2/2] z8 | z8 | z8 | z8 | z8 | z8 | z8 | z8 | z8 | z8 | z8 | %75
w: cast on us A|fav- our- * a- ble|eye.||||||||||||
 z8 | z8 | z8 | z8 | z8 | z8 | z8 | z8 | z8 | z8 ||[K:Eb][M:3/4] z6 | z6 | z6 | e2 d2 c2 | %89
w: |||||||||||||Down will I|
 B2 =A2 G2 | G4 ^F2 | G6 | B2 A2 G2 | F6 | e2 d2 c2 | =B4 z2 | f2 e2 d2 | c2 =B2 c2 | d2 c2 =B2 | %99
w: lie, will I|lie in|peace,|Down will I|lie,|Down will I|lie,|Down will I|lie, will I|lie _ in|
 c4 G2 | B3 E F>G | FE E D2 E | E6 | z6 | z6 | =B2 d2 B2 | e2 e2 d>e | c4 c=B | d2 G2 =A=B | %109
w: peace, and|sleep Shall close _|my _ wear- * ied|eyes;|||No fears dis-|turb me, no _|fears dis- *|turb me, whilst I|
 c3 G G2- | GG G3 ^F | G6 | G2 =B2 G2 | e2 e4- | e3/2 d/cd =e2 | f4 e2 | d3 d d>e | dc c =B2 c | %118
w: know In God|my _ safe- ty|lies,|No fears dis-|turb me,|_ whilst _ _ I|know In|God In God _|my _ safe- * ty|
 c3 e d>e | dc c =B2 c | c6 |] %121
w: lies, In God _|my _ safe- * ty|lies.|
V:3
 z8 | z8 | z8 | z4 z2 G,2- | G,G, ^F,2 G,4- | G,G,=A,A, B,4- | B,B,D,E, F,4- | F,2 F,2 B,,2 z2 | %8
w: |||Hear|_ me, O Lord,|_ the great sup- port|_ Of my in- te-|* gri- ty;|
 z E,E,E, E,C,D,E, | F,4 z F,G,A, | =B,,3 B,, C,2 C,2 | D,3 D, G,,4 | z2 G,2 G,2 z G, | %13
w: Thou hast my for- mer trou- bles|eas'd; Now to my|pray'rs Now to my|pray'rs draw nigh.|Fond men! that|
 G,,G,, G,,>G,, C,2 z C, | C,C, C,>C, F,2 z2 | z8 | z4 z2 A,2 | F,>E, D,B,, G,,B,, E,2 | %18
w: would my glo- ry stain, My|gov- ern- ment des- pise;||How|long will ye pur- sue vain hopes,|
 z4 z2 B,2 | G,>F, E,C, A,,C, F,2- | F,D, G,3 G, F,>E, | D,2 E,C, G,3 G, | C,8 || z8 | z8 | z8 | %26
w: How|long will ye pur- sue vain hopes,|_ And please your- selves with|lies, please your- selves with|lies?||||
 z8 | z8 | z8 | z8 | z8 | z8 | z4 C, C,3 | z8 | z2 z F, =B,,4 | z2 z =A, ^F,4 | %36
w: ||||||Sin not,||but fear,|but fear,|
 z G, B,<E, A,3/2 G,/F,/E,/D,/C,/ | B,,2 G,,A,, B,,3 B,, | E,,4 z2 E,2- | E,E, E,2 D,D,D,D, | %40
w: let qui- et thoughts In- * * * *|struct and _ make you|wise; Join|_ a pure heart with trust in|
 =A,,A,,/A,,/ B,,2 C,3 C, | D,4 z2 B,2- | B,/B,/B, B,B, =A,3 A, | G,3 G,/G,/ F,4 | G,3 G, C,4 || %45
w: God As the best sa- *|fice, Join|_ a pure heart with trust in|God As the best|sa- cri- fice.|
[M:3/4] z2 z2 C,2 | E,2 E,2 G,>A, | D,>D, D,3 G, | C,>D, D,3 C, | G,6 | C,3 C, C2 | A,6 | =A,4 z2 | %53
w: Though|oth- ers in dis-|trust of thee To|oth- er suc- cours|fly,|Thou art our|hope;|Lord,|
 B,4 z2 | =B,3 B, C>C, | D,>D, D,3 D, | G,,4 G,2 | E,4 z2 | F,3 G, A,F, | G,F,, G,,3 G,, | C,6 | %61
w: cast,|cast on us A|fav- our- a- ble|eye, Lord,|cast,|cast on us A|fav- our- a- ble|eye,|
 F,3 G, A,F, | G,C, G,,3 G,, | C,6 ||[K:C][M:2/2] z8 | z8 | z8 | z8 | z8 | z8 | z8 | z8 | z8 | z8 | %74
w: cast on us A|fav- our- a- ble|eye.|||||||||||
 z8 | z8 | z8 | z8 | z8 | z8 | z8 | z8 | z8 | z8 | z8 ||[K:Eb][M:3/4] C2 B,2 A,2 | G,2 F,2 E,2 | %87
w: |||||||||||Down will I|lie, will I|
 D,4 G,2 | C,6- | C,6 | z6 | G,2 F,2 E,2 | D,2 C,2 B,,2 | =A,,6 | A,,6 | G,,6- | G,,6- | G,,6- | %98
w: lie in|peace,|_||Down will I|lie, will I|lie|in|peace,|_||
 G,,4 G,,2 | C,4 E,2 | G,,4 A,,2- | A,,2 B,,3 B,, | E,,6 | E,2 G,2 E,2 | B,2 B,4 | G,2 =B,2 G,2 | %106
w: * and|sleep Shall|close my|_ wear- ied|eyes;|No fears dis-|turb me,|no fears dis-|
 C2 C2 B,2 | =A,2 A,2 _A,A, | G,3 F, E,D, | C,3 C, =B,,2 | B,,2 D,3 D, | G,,6 | z6 | C,2 E,2 C,2 | %114
w: turb me, dis-|turb me, whilst I|know, whilst _ I|know In God|my safe- ty|lies,||No fears dis-|
 A,2 A,2 A,G, | F,4 F,2 | B,3 B,, E,2 | F,2 G,3 G,, | C,3 C, F,2- | F,F, G,3 G,, | C,6 |] %121
w: turb me, whilst I|know In|God In God|my safe- ty|lies, In God|_ my safe- ty|lies.|
V:4
 G,3 =A,/=B,/ C2 D2 | EF G4 F2 | E>D C4 D>E | [D,G,=B,]4 [GB-d-]4 | d3 c B2 g2- | g2 fe d4- | %6
 d2 Bc c4- | [Fc]4 B4 | G2 F2 E4- | E2 DE F4 | D2 G4 G=A | =A4 G4 | G/=A/=B- B2- BB/c/ [Bd]2- | %13
 [Bd]2 [G=B]2 G2 c2 | B2- B>=A [FA]2 [_Ac-]2 | c2 d2 B3 B- | B2 A4 F2- | F2 B2- BA G2- | %18
 G2 FE D4- | c6 [FA]>[EG] | F>E D2 C2 F2 | D2 [EA]E D3 C | [G,C]8 || %23
 [EGc]3 G/F/ [G,CE]2- [G,CE]/F/E/D/ | [E,G,C]6 [B,E]2 | E3 D C2 FG | [F=A]4 B/c/d- dc | %27
 B=A G4 A>G | ^F3 G/=A/ B A2 G | G3 =A [G-B]4 | [G=B]4 [=Ac]2 [Ad]2 | [G=B]2 [Gc]4- [Gc]>[GB] | %32
 [EGc]4 [CE]4 | D4 C2 G2 | F4 D3 G- | G>F E2 D4 | B,2 E4 F2- | F2 E4- ED | [G,E]4 [B,EG]4- | %39
 [B,EG]2 [EGB]2 [DF=B]4 | [^Fc]2 [GB]2 [C=A]2 [B,G]2 | [=A,D^F]4 [D=F]4- | [DF]4 [C^F]4 | %43
 D2 E4 FG | [DF]<[CE] [=B,D]>C C4 ||[M:3/4] [EG]>[DF] [CE]4- | [CE]>D C4 | D3 E/F/ G2- | G2 F2 c2 | %49
 [DG=B]3 [C=A] [=B,G-]2 | [CEG][DF] E4 | z2 [C=E]4 | z2 [CF]4 | z2 [D^F]4 | G2 g-[fg-] [eg]>[df] | %55
 [ce]/[Bd][=Ac]/ [GB]3 [^FA] | G4 z2 | z2 e/d/c c2 | z2 a/g/f fe | dc [EGc]3 [EG=B] | [CGc]6 | z6 | %62
 z6 | z6 ||[K:C][M:2/2] [CE]4 G4- | G2 c2 d4- | d2 B2 e2 G2 | A>Bc>B A>Ad>c | B>A G6- | %69
 GGAB cd e2 | A>BA>G F>GA>F | D2 E/F/G [DG]2 [D^F]2 | [DG]2- [DG]/^F/G/A/ BcdB | %73
 [CGc]2 [GBd]2 [Gce]4 | c2 _B2 A3 B/A/ | G2 F2 E2 _B2 | B2 c2 [CA]3 [B,^G] | A2 FE D2 d2 | %78
 B>A G2 c3 B | [FA][EG]FE D2 [Fd][Ec] | c3 B [Gc]2 A2- | AG ^F2 BA G2 | c/d/edc de f2- | %83
 fedc c3 B | [EGc]8 ||[K:Eb][M:3/4] z f ed cd | =B4 c2- | c2 fe =B2 | [Ec]2 F/G/A G2- | %89
 G2 c/d/e d2- | d2 cB =A2 | [G=B]2 z D2 E | F2 E2 DE/D/ | C2 z c2 d | e2 d2 c2 | [D=B]3 E DC | %96
 =B,3 =A, B,2 | C G2 F E2 | F2 [CE]2 [=B,D]2 | E3 F G2 | B3 c A2- | AG F3 E | E6 | GA BE FG | %104
 FE D2 d2- | dc =Bd GF | E2 A3 =E | FC c3 d | =B=A G4- | G2 c2 d2 | cB G3 ^F | G6 | B,C DA GF | %113
 ED C3 D | E2 c3 B | A4- AG | F4 G2- | GD- D3 C | C3 z z2 | z6 | z6 |] %121
V:5
 C,8- | C,8- | C,3 B,, A,,4 | G,,8- | G,,8 | G,2 =A,2 B,2 G,2 | D,3 E, F,4 | x8 | x8 | x8 | x8 | %11
 x8 | x8 | x8 | x8 | x8 | A,3 A, F,3 F, | D,2 B,,2 G,,3 G,, | A,,3 A,, B,,4 | E,,3 E,, F,,4 | %20
 G,,3 G,, =A,,4 | =B,,2 C,2 G,,4 | C,8 || x8 | x8 | x8 | x8 | G,,4 E,,4 | D,,8 | G,,8- | %30
 G,,4 F,,4- | F,,2 E,,F,, G,,4 | C,8 | G,,4 C,2 =E,,2 | F,,2 F,2 =B,,4 | C,4 D,4 | E,4 A,,3 F,, | %37
 B,,2 G,,A,, B,,4 | E,,4 E,4- | E,2 E,2 D,4 | =A,,2 B,,2 C,4 | D,4 B,4- | B,2 B,2 =A,4 | G,4 F,4 | %44
 G,2 G,,2 C,4 ||[M:3/4] C,6- | C,6- | C,2 B,,4 | A,,6 | G,,6 | C,4 C2 | A,6 | =A,6 | B,6 | %54
 =B,4 C>C, | D,4 D,,2 | G,,4 G,2 | [G,C]6 | [A,D]4- [A,D]C | =B,=A, G,4 | z2 z G, CB, | [F,A,]6 | %62
 G,2 G,,4 | C,6 ||[K:C][M:2/2] C,6 G,,2 | C,2 C6 | B,2 G,2 C2 C,2 | x8 | x8 | x8 | x8 | x8 | x8 | %73
 x8 | x8 | x8 | x8 | x8 | x8 | x8 | x8 | x8 | x8 | x8 | x8 ||[K:Eb][M:3/4] C2 B,2 A,2 | %86
 G,2 F,2 E,2 | D,4 G,2 | C,6- | C,6 | D,6 | G,2 F,2 E,2 | D,2 C,2 B,,2 | =A,,6 | A,,6 | G,,6- | %96
 G,,6- | G,,6- | G,,6 | C,4 E,2 | G,,4 A,,2- | A,,2 B,,4 | E,,6 | E,6 | B,6 | G,6 | C4 B,2 | %107
 =A,4 _A,2 | G,3 F, E,D, | C,4 =B,,2 | B,,2 D,4 | G,,6- | G,,6 | C,6 | A,4- A,G, | F,6 | %116
 B,2 B,,2 E,2 | F,2 G,2 G,,2 | C,4 F,2- | F,2 G,2 G,,2 | C,6 |] %121
V:6
 x8 | z2 z D E2 D2 | G,3 A,/G,/ F,4 | x8 | [GB]2 [^F=A]2 G4 | B2 c2 [FB]2 =E2 | F3 G =A2 B2- | %7
 B2 =A2 [DF]4 | B,2 =A,=B, C4- | C2 DE D2 C2 | =B,2 G,2 E4 | D4 =B,4 | [DG]4- [DG]G- G2- | %13
 G2 E>D E3 =E- | E4 C2 A2 | F4 G4 | C2 E2- ED C2 | B,2 D2 E3 B, | C4 D2 B,2- | [B,D]2 [EG]2 [CE]4 | %20
 =B,4 C4 | D2 C4 =B,2 | x8 || x8 | x8 | B,F,-F,G, A,2 FG | C4 D4- | D3 G, C4- | C=A, D4 D2 | %29
 B,>=A, G, z z4 | D2 E4 D2- | D2 CD E2- E>D | x8 | =B,4 C3 _B,- | B,2 A,2 G,4- | G,3 =A, ^F,4 | %36
 G,4 C4 | D2 B,C F,4 | x8 | x8 | C2 D2 E4 | x8 | x8 | =B,4 C2 DE | x8 ||[M:3/4] C2 G,4- | %46
 G,>F, E,4 | [F,A,]2 G,4 | C6 | x6 | x6 | x6 | x6 | x6 | E3 D z2 | x6 | x6 | x6 | x6 | x6 | x6 | %61
 x6 | x6 | x6 ||[K:C][M:2/2] G,4 [CE]2 [CD][B,D] | [CE]2 E2 F/G/A- A2 | G6 E2 | C2- C>D E2 F>E | %68
 D>CB,C B,CB,/C/D | G,2 CD EF G2 | F2 C2 D4 | B,2 C2 B,2 A,2 | B,2- B,/^F/G/A/ G4- | x8 | %74
 F3 E F>E C2 | ^C3 D _B,2 EF | E4 E4 | A,6 ^F2 | D4 C2 E2 | x8 | [DG]4 E2 FE | D3 E D4 | %82
 G2 E2 F3 G | AGFE G2 D2 | x8 ||[K:Eb][M:3/4] x6 | z D EF GC | F4 G2 | x6 | z4 B=A | G4 ^F2 | x6 | %92
 x6 | x6 | z E FG A2 | x6 | x6 | z4 z G, | A,2 G,4 | C4 B,2 | _D3 E C2- | CE E D2 E | %102
 z A, G,F, E,2 | x6 | x6 | x6 | x6 | x6 | D4 CD | E3 D F2 | ED B,3 =A, | G,3 =A, =B,2- | x6 | %113
 z2 C4- | C4 =E2 | F2 C2 E2 | D4 D2- | D C2 =B,2 C | x6 | x6 | x6 |] %121
V:7
 x8 | x8 | x8 | x8 | x8 | x8 | x8 | F,,4 B,,4 | E,3 D, C,3 B,, | =A,,2 B,,4 _A,,2 | %10
 G,,2 =B,,2 C,4 | D,4 G,,4 | G,8 | G,,4 C,4- | C,4 F,,2 F,2 | =A,,2 B,,2 E,4 | x8 | x8 | x8 | x8 | %20
 x8 | x8 | x8 || C,8- | C,6 G,,2 | B,,4 F,,4- | F,,4 ^F,,4 | x8 | x8 | x8 | x8 | x8 | x8 | x8 | %34
 x8 | x8 | x8 | x8 | x8 | x8 | x8 | x8 | x8 | x8 | x8 ||[M:3/4] x6 | x6 | x6 | x6 | x6 | x6 | x6 | %52
 x6 | x6 | x6 | x6 | x6 | E,6 | F,6 | G,2 G,,4 | C,6 | x6 | x6 | x6 ||[K:C][M:2/2] x8 | x8 | x8 | %67
 F,4 D,4 | G,3 A, G,3 F, | E,2 D,2 C,4 | F,>G,F,>E, D,>E,F,>D, | G,2 C,2 D,2 D,,2 | %72
 G,,2 D,2 G,3 F, | E,2 G,2 C3 _B, | A,2 G,2 F,4 | _B,3 A, G,4 | ^G,2 A,2 E,4 | F,4 ^F,2 D,2 | %78
 G,3 F, E,2 A,2 | D,3 E, F,G,A,F, | G,2 G,,2 C,2 F,2 | ^F,2 D,2 G,3 =F, | E,2 A,2 D,3 E, | %83
 F,2 F,,2 G,,4 | C,8 ||[K:Eb][M:3/4] x6 | x6 | x6 | x6 | x6 | x6 | x6 | x6 | x6 | x6 | x6 | x6 | %97
 x6 | x6 | x6 | x6 | x6 | x6 | x6 | x6 | x6 | x6 | x6 | x6 | x6 | x6 | x6 | x6 | x6 | x6 | x6 | %116
 x6 | x6 | x6 | x6 | x6 |] %121

